!!!OTL: ICH WEISS NICHT WAS SOLL ES BEDEUTEN
!!!ARE: Europa, Mitteleuropa, Deutschland
!!!SCT: F0821
!!!YEM: Copyright 1995, estate of Helmut Schaffrath.
**kern
*ICvox
*Ivox
*M6/8
*k[f#c#]
*D:
{8a
=1
8.a
16b
8a
8dd
8cc#
8b
=2
4.a
4g}
{8g
=3
4f#
8f#
8e
8d
8e
=4
2f#
8r}
{8a
=5
8.a
16b
8a
8dd
8cc#
8b
=6
4.a
4g}
{8g
=7
4f#
8f#
8a
8g
8e
=8
2d
8r}
{8f#
=9
8.e
16f#
8e
8a
8e
8e
=10
4.cc#
4b}
{8b
=11
4a
8a
8g#
8a
8b
=12
[4.a
4a]}
{8a
=13
8.a
16b
8a
8dd
8cc#
8b
=14
4a
8ff#
4ee}
{8ee
=15
4dd
8dd
8cc#
8b
8cc#
=16
2dd
8r}
==
!!!AGN: erzaehlendes Volks - Lied, Ballade, Lorelei
!!!ONB: ESAC (Essen Associative Code) Database: FINK
!!!AMT: compound duple
!!!AIN: vox
!!!EED: Helmut Schaffrath
!!!EEV: 1.0
*-
